X:5261
T:Priest in His Boots, The
O:england
R:double jig
M:6/8
L:1/8
K:D
e3 e3|e2d cBA|d3 fed|c2d ecA|
e3 e3|e2d cBA|dAd faf|gec d3:|
a2f g2e|f2d ecA|d3 fed|c2d ecA|
a2f g2e|f2d ecA|d3 fed|cBc d3:|
